img/svg/date-and-time.svg

<svg viewBox="0 0 487 122" fill="none" xmlns="http://www.w3.org/2000/svg">
<path d="M60.8887 107H6.85352V99.4668L35.4004 67.748C39.6296 62.9525 42.5371 59.0632 44.123 56.0801C45.7467 53.0592 46.5586 49.944 46.5586 46.7344C46.5586 42.4297 45.2559 38.8991 42.6504 36.1426C40.0449 33.3861 36.571 32.0078 32.2285 32.0078C27.0176 32.0078 22.9583 33.4993 20.0508 36.4824C17.181 39.4277 15.7461 43.5436 15.7461 48.8301H5.26758C5.26758 41.2402 7.70312 35.1042 12.5742 30.4219C17.4831 25.7396 24.0345 23.3984 32.2285 23.3984C39.8939 23.3984 45.9544 25.4186 50.4102 29.459C54.8659 33.4616 57.0938 38.8047 57.0938 45.4883C57.0938 53.6068 51.9206 63.2734 41.5742 74.4883L19.4844 98.4473H60.8887V107ZM69.2647 65.6523L73.4561 24.5312H115.71V34.2168H82.3487L79.8565 56.7031C83.8968 54.3242 88.4847 53.1348 93.6202 53.1348C101.134 53.1348 107.101 55.627 111.519 60.6113C115.937 65.5579 118.146 72.2604 118.146 80.7188C118.146 89.2148 115.842 95.9173 111.235 100.826C106.666 105.697 100.266 108.133 92.0342 108.133C84.7465 108.133 78.7992 106.113 74.1924 102.072C69.5857 98.0319 66.9613 92.4434 66.3194 85.3066H76.2315C76.8734 90.0267 78.5537 93.5951 81.2725 96.0117C83.9912 98.3906 87.5785 99.5801 92.0342 99.5801C96.9053 99.5801 100.719 97.9186 103.476 94.5957C106.27 91.2728 107.667 86.6849 107.667 80.832C107.667 75.319 106.157 70.901 103.136 67.5781C100.153 64.2174 96.169 62.5371 91.1846 62.5371C86.6156 62.5371 83.0284 63.5378 80.4229 65.5391L77.6475 67.8047L69.2647 65.6523Z" fill="#FBD189"/>
<path d="M154.57 50.0547H141.352L138.586 58H132.422L145.312 23.875H150.633L163.547 58H157.359L154.57 50.0547ZM143.016 45.2734H152.906L147.961 31.1172L143.016 45.2734ZM194.438 58H188.531V28.6562H173.508V58H167.602V23.875H194.438V58ZM207.539 45.3203V58H201.609V23.875H214.664C218.477 23.875 221.5 24.8672 223.734 26.8516C225.984 28.8359 227.109 31.4609 227.109 34.7266C227.109 38.0703 226.008 40.6719 223.805 42.5312C221.617 44.3906 218.547 45.3203 214.594 45.3203H207.539ZM207.539 40.5625H214.664C216.773 40.5625 218.383 40.0703 219.492 39.0859C220.602 38.0859 221.156 36.6484 221.156 34.7734C221.156 32.9297 220.594 31.4609 219.469 30.3672C218.344 29.2578 216.797 28.6875 214.828 28.6562H207.539V40.5625ZM252.258 42.7656H238.242V53.2656H254.625V58H232.312V23.875H254.461V28.6562H238.242V38.0781H252.258V42.7656ZM286.289 23.875V58H280.383V28.6562H269.93L269.32 41.8516C269.086 45.9766 268.578 49.1797 267.797 51.4609C267.031 53.7266 265.914 55.3828 264.445 56.4297C262.977 57.4766 261.008 58 258.539 58H257.039V53.2656L257.977 53.1953C259.336 53.0703 260.383 52.5938 261.117 51.7656C261.867 50.9375 262.43 49.6875 262.805 48.0156C263.195 46.3281 263.469 43.8516 263.625 40.5859L264.281 23.875H286.289ZM310.266 58V45.25H303.656L297.07 58H290.719L298.336 43.4922C294.367 41.6172 292.383 38.5469 292.383 34.2812C292.383 31.0156 293.453 28.4766 295.594 26.6641C297.75 24.8359 300.75 23.9062 304.594 23.875H316.195V58H310.266ZM298.289 34.5391C298.289 36.4609 298.828 37.9609 299.906 39.0391C300.984 40.1172 302.602 40.6562 304.758 40.6562H310.266V28.6562H304.758C302.57 28.6562 300.945 29.1797 299.883 30.2266C298.82 31.2734 298.289 32.7109 298.289 34.5391ZM336.258 60.9297H331.781L345.211 23.875H349.688L336.258 60.9297ZM380.648 58H374.977V30.6016L366.609 33.4609V28.6562L379.922 23.7578H380.648V58ZM415.219 27.0391L401.578 58H395.602L409.219 28.4453H391.57V23.875H415.219V27.0391ZM423.586 52C424.648 52 425.469 52.3047 426.047 52.9141C426.625 53.5078 426.914 54.2578 426.914 55.1641C426.914 56.0547 426.625 56.7969 426.047 57.3906C425.469 57.9688 424.648 58.2578 423.586 58.2578C422.57 58.2578 421.766 57.9688 421.172 57.3906C420.578 56.8125 420.281 56.0703 420.281 55.1641C420.281 54.2578 420.57 53.5078 421.148 52.9141C421.727 52.3047 422.539 52 423.586 52ZM423.586 32.1016C424.648 32.1016 425.469 32.4062 426.047 33.0156C426.625 33.6094 426.914 34.3594 426.914 35.2656C426.914 36.1562 426.625 36.8984 426.047 37.4922C425.469 38.0703 424.648 38.3594 423.586 38.3594C422.57 38.3594 421.766 38.0703 421.172 37.4922C420.578 36.9141 420.281 36.1719 420.281 35.2656C420.281 34.3594 420.57 33.6094 421.148 33.0156C421.727 32.4062 422.539 32.1016 423.586 32.1016ZM454.781 43.6328C454.781 48.5391 453.859 52.2422 452.016 54.7422C450.188 57.2266 447.398 58.4688 443.648 58.4688C439.961 58.4688 437.18 57.2578 435.305 54.8359C433.445 52.3984 432.492 48.7969 432.445 44.0312V38.125C432.445 33.2188 433.359 29.5391 435.188 27.0859C437.031 24.6328 439.836 23.4062 443.602 23.4062C447.336 23.4062 450.117 24.6016 451.945 26.9922C453.789 29.3828 454.734 32.9609 454.781 37.7266V43.6328ZM449.086 37.2578C449.086 34.0547 448.648 31.7109 447.773 30.2266C446.898 28.7266 445.508 27.9766 443.602 27.9766C441.742 27.9766 440.375 28.6875 439.5 30.1094C438.625 31.5156 438.164 33.7188 438.117 36.7188V44.4531C438.117 47.6406 438.562 50.0156 439.453 51.5781C440.344 53.1406 441.742 53.9219 443.648 53.9219C445.477 53.9219 446.828 53.2031 447.703 51.7656C448.578 50.3125 449.039 48.0469 449.086 44.9688V37.2578ZM482.062 43.6328C482.062 48.5391 481.141 52.2422 479.297 54.7422C477.469 57.2266 474.68 58.4688 470.93 58.4688C467.242 58.4688 464.461 57.2578 462.586 54.8359C460.727 52.3984 459.773 48.7969 459.727 44.0312V38.125C459.727 33.2188 460.641 29.5391 462.469 27.0859C464.312 24.6328 467.117 23.4062 470.883 23.4062C474.617 23.4062 477.398 24.6016 479.227 26.9922C481.07 29.3828 482.016 32.9609 482.062 37.7266V43.6328ZM476.367 37.2578C476.367 34.0547 475.93 31.7109 475.055 30.2266C474.18 28.7266 472.789 27.9766 470.883 27.9766C469.023 27.9766 467.656 28.6875 466.781 30.1094C465.906 31.5156 465.445 33.7188 465.398 36.7188V44.4531C465.398 47.6406 465.844 50.0156 466.734 51.5781C467.625 53.1406 469.023 53.9219 470.93 53.9219C472.758 53.9219 474.109 53.2031 474.984 51.7656C475.859 50.3125 476.32 48.0469 476.367 44.9688V37.2578Z" fill="#FBD189"/>
<path d="M135.234 108V82.4062H142.793C145.535 82.4062 147.615 82.9746 149.033 84.1113C150.451 85.2363 151.16 86.9004 151.16 89.1035C151.16 90.4277 150.797 91.582 150.07 92.5664C149.355 93.5391 148.371 94.2363 147.117 94.6582C148.605 94.9863 149.801 95.7188 150.703 96.8555C151.617 97.9922 152.074 99.3047 152.074 100.793C152.074 103.055 151.342 104.824 149.877 106.102C148.424 107.367 146.396 108 143.795 108H135.234ZM137.396 95.6953V106.172H143.883C145.734 106.172 147.199 105.703 148.277 104.766C149.367 103.816 149.912 102.504 149.912 100.828C149.912 99.2461 149.391 97.998 148.348 97.084C147.316 96.1582 145.887 95.6953 144.059 95.6953H137.396ZM137.396 93.8848H143.303C145.107 93.8496 146.502 93.4277 147.486 92.6191C148.482 91.7988 148.98 90.6094 148.98 89.0508C148.98 87.4102 148.465 86.2031 147.434 85.4297C146.414 84.6445 144.867 84.252 142.793 84.252H137.396V93.8848ZM176.227 96.5918C176.227 98.9473 175.816 101.016 174.996 102.797C174.188 104.578 173.027 105.949 171.516 106.91C170.004 107.871 168.258 108.352 166.277 108.352C163.289 108.352 160.875 107.285 159.035 105.152C157.195 103.008 156.275 100.119 156.275 96.4863V93.8496C156.275 91.5176 156.686 89.4551 157.506 87.6621C158.338 85.8574 159.51 84.4746 161.021 83.5137C162.533 82.541 164.273 82.0547 166.242 82.0547C168.211 82.0547 169.945 82.5293 171.445 83.4785C172.957 84.4277 174.123 85.7695 174.943 87.5039C175.764 89.2383 176.191 91.248 176.227 93.5332V96.5918ZM174.064 93.8145C174.064 90.7324 173.367 88.3184 171.973 86.5723C170.578 84.8262 168.668 83.9531 166.242 83.9531C163.863 83.9531 161.965 84.832 160.547 86.5898C159.141 88.3359 158.438 90.7793 158.438 93.9199V96.5918C158.438 99.627 159.141 102.035 160.547 103.816C161.953 105.586 163.863 106.471 166.277 106.471C168.727 106.471 170.637 105.598 172.008 103.852C173.379 102.094 174.064 99.6504 174.064 96.5215V93.8145ZM199.799 100.02C199.506 102.715 198.539 104.777 196.898 106.207C195.27 107.637 193.096 108.352 190.377 108.352C188.479 108.352 186.797 107.877 185.332 106.928C183.879 105.979 182.754 104.637 181.957 102.902C181.16 101.156 180.756 99.1641 180.744 96.9258V93.6035C180.744 91.3301 181.143 89.3145 181.939 87.5566C182.736 85.7988 183.879 84.4453 185.367 83.4961C186.867 82.5352 188.59 82.0547 190.535 82.0547C193.277 82.0547 195.439 82.7988 197.021 84.2871C198.615 85.7637 199.541 87.8086 199.799 90.4219H197.619C197.08 86.0742 194.719 83.9004 190.535 83.9004C188.215 83.9004 186.363 84.7676 184.98 86.502C183.609 88.2363 182.924 90.6328 182.924 93.6914V96.8203C182.924 99.7734 183.592 102.129 184.928 103.887C186.275 105.645 188.092 106.523 190.377 106.523C192.639 106.523 194.344 105.984 195.492 104.906C196.641 103.816 197.35 102.188 197.619 100.02H199.799ZM210.82 95.9941H207.305V108H205.143V82.4062H207.305V94.1484H210.715L220.611 82.4062H223.336L212.824 94.9922L224.109 108H221.42L210.82 95.9941ZM230.209 97.5762V108H228.047V82.4062H236.766C239.426 82.4062 241.523 83.0859 243.059 84.4453C244.605 85.8047 245.379 87.6738 245.379 90.0527C245.379 92.4551 244.635 94.3125 243.146 95.625C241.67 96.9258 239.525 97.5762 236.713 97.5762H230.209ZM230.209 95.748H236.766C238.863 95.748 240.463 95.25 241.564 94.2539C242.666 93.2578 243.217 91.8691 243.217 90.0879C243.217 88.3184 242.666 86.9121 241.564 85.8691C240.475 84.8145 238.922 84.2754 236.906 84.252H230.209V95.748ZM264.363 95.7305H252.393V106.172H266.156V108H250.23V82.4062H266.068V84.252H252.393V93.9023H264.363V95.7305ZM288.85 100.02C288.557 102.715 287.59 104.777 285.949 106.207C284.32 107.637 282.146 108.352 279.428 108.352C277.529 108.352 275.848 107.877 274.383 106.928C272.93 105.979 271.805 104.637 271.008 102.902C270.211 101.156 269.807 99.1641 269.795 96.9258V93.6035C269.795 91.3301 270.193 89.3145 270.99 87.5566C271.787 85.7988 272.93 84.4453 274.418 83.4961C275.918 82.5352 277.641 82.0547 279.586 82.0547C282.328 82.0547 284.49 82.7988 286.072 84.2871C287.666 85.7637 288.592 87.8086 288.85 90.4219H286.67C286.131 86.0742 283.77 83.9004 279.586 83.9004C277.266 83.9004 275.414 84.7676 274.031 86.502C272.66 88.2363 271.975 90.6328 271.975 93.6914V96.8203C271.975 99.7734 272.643 102.129 273.979 103.887C275.326 105.645 277.143 106.523 279.428 106.523C281.689 106.523 283.395 105.984 284.543 104.906C285.691 103.816 286.4 102.188 286.67 100.02H288.85ZM308.238 95.7305H296.268V106.172H310.031V108H294.105V82.4062H309.943V84.252H296.268V93.9023H308.238V95.7305ZM333.568 108H331.389V95.7305H316.764V108H314.602V82.4062H316.764V93.9023H331.389V82.4062H333.568V108ZM342.146 93.5156H348.492C350.238 93.5156 351.75 93.8086 353.027 94.3945C354.305 94.9688 355.277 95.8008 355.945 96.8906C356.625 97.9688 356.965 99.2461 356.965 100.723C356.965 102.984 356.209 104.766 354.697 106.066C353.186 107.355 351.094 108 348.422 108H339.984V82.4062H342.146V93.5156ZM342.146 95.3613V106.172H348.475C350.455 106.172 352.002 105.686 353.115 104.713C354.229 103.729 354.785 102.387 354.785 100.688C354.785 99.0703 354.246 97.7871 353.168 96.8379C352.09 95.877 350.578 95.3848 348.633 95.3613H342.146ZM376.266 95.7305H364.295V106.172H378.059V108H362.133V82.4062H377.971V84.252H364.295V93.9023H376.266V95.7305Z" fill="#FBD189"/>
</svg>

<svg viewBox="0 0 487 122" fill="none" xmlns="http://www.w3.org/2000/svg"><path d="M60.889 107H6.854v-7.533L35.4 67.748c4.23-4.796 7.137-8.685 8.723-11.668 1.624-3.02 2.436-6.136 2.436-9.346 0-4.304-1.303-7.835-3.909-10.591-2.605-2.757-6.079-4.135-10.422-4.135-5.21 0-9.27 1.491-12.177 4.474-2.87 2.946-4.305 7.062-4.305 12.348H5.268c0-7.59 2.435-13.726 7.306-18.408 4.91-4.682 11.46-7.024 19.654-7.024 7.666 0 13.726 2.02 18.182 6.061 4.456 4.003 6.684 9.346 6.684 16.03 0 8.118-5.173 17.784-15.52 29l-22.09 23.958H60.89V107zm8.376-41.348l4.191-41.12h42.254v9.685H82.349l-2.493 22.486c4.04-2.379 8.629-3.568 13.764-3.568 7.514 0 13.481 2.492 17.899 7.476 4.418 4.947 6.627 11.65 6.627 20.108 0 8.496-2.304 15.198-6.911 20.107-4.569 4.871-10.969 7.307-19.2 7.307-7.288 0-13.236-2.02-17.843-6.061-4.606-4.04-7.23-9.629-7.873-16.765h9.912c.642 4.72 2.323 8.288 5.041 10.705 2.72 2.379 6.306 3.568 10.762 3.568 4.871 0 8.685-1.661 11.442-4.984 2.794-3.323 4.191-7.911 4.191-13.764 0-5.513-1.51-9.931-4.531-13.254-2.983-3.36-6.967-5.04-11.951-5.04-4.57 0-8.157 1-10.762 3.001l-2.776 2.266-8.382-2.153zM154.57 50.055h-13.218L138.586 58h-6.164l12.89-34.125h5.321L163.547 58h-6.188l-2.789-7.945zm-11.554-4.782h9.89l-4.945-14.156-4.945 14.156zM194.438 58h-5.907V28.656h-15.023V58h-5.906V23.875h26.836V58zm13.101-12.68V58h-5.93V23.875h13.055c3.813 0 6.836.992 9.07 2.977 2.25 1.984 3.375 4.609 3.375 7.875 0 3.343-1.101 5.945-3.304 7.804-2.188 1.86-5.258 2.79-9.211 2.79h-7.055zm0-4.758h7.125c2.109 0 3.719-.492 4.828-1.476 1.11-1 1.664-2.438 1.664-4.313 0-1.843-.562-3.312-1.687-4.406-1.125-1.11-2.672-1.68-4.641-1.71h-7.289v11.905zm44.719 2.204h-14.016v10.5h16.383V58h-22.313V23.875h22.149v4.781h-16.219v9.422h14.016v4.688zm34.031-18.891V58h-5.906V28.656H269.93l-.61 13.196c-.234 4.125-.742 7.328-1.523 9.609-.766 2.266-1.883 3.922-3.352 4.969-1.468 1.047-3.437 1.57-5.906 1.57h-1.5v-4.734l.938-.07c1.359-.126 2.406-.602 3.14-1.43.75-.828 1.313-2.078 1.688-3.75.39-1.688.664-4.164.82-7.43l.656-16.711h22.008zM310.266 58V45.25h-6.61L297.07 58h-6.351l7.617-14.508c-3.969-1.875-5.953-4.945-5.953-9.21 0-3.266 1.07-5.805 3.211-7.618 2.156-1.828 5.156-2.758 9-2.789h11.601V58h-5.929zm-11.977-23.46c0 1.92.539 3.42 1.617 4.5 1.078 1.077 2.696 1.616 4.852 1.616h5.508v-12h-5.508c-2.188 0-3.813.524-4.875 1.57-1.063 1.047-1.594 2.485-1.594 4.313zm37.969 26.39h-4.477l13.43-37.055h4.477l-13.43 37.055zm44.39-2.93h-5.671V30.602l-8.368 2.859v-4.805l13.313-4.898h.726V58zm34.571-30.96L401.578 58h-5.976l13.617-29.555H391.57v-4.57h23.649v3.164zM423.586 52c1.062 0 1.883.305 2.461.914.578.594.867 1.344.867 2.25 0 .89-.289 1.633-.867 2.227-.578.578-1.399.867-2.461.867-1.016 0-1.82-.29-2.414-.867-.594-.578-.891-1.32-.891-2.227 0-.906.289-1.656.867-2.25.579-.61 1.391-.914 2.438-.914zm0-19.898c1.062 0 1.883.304 2.461.914.578.593.867 1.343.867 2.25 0 .89-.289 1.632-.867 2.226-.578.578-1.399.867-2.461.867-1.016 0-1.82-.289-2.414-.867-.594-.578-.891-1.32-.891-2.226 0-.907.289-1.657.867-2.25.579-.61 1.391-.914 2.438-.914zm31.195 11.53c0 4.907-.922 8.61-2.765 11.11-1.828 2.485-4.618 3.727-8.368 3.727-3.687 0-6.468-1.211-8.343-3.633-1.86-2.438-2.813-6.04-2.86-10.805v-5.906c0-4.906.914-8.586 2.743-11.04 1.843-2.452 4.648-3.679 8.414-3.679 3.734 0 6.515 1.196 8.343 3.586 1.844 2.39 2.789 5.969 2.836 10.735v5.906zm-5.695-6.374c0-3.203-.438-5.547-1.313-7.031-.875-1.5-2.265-2.25-4.171-2.25-1.86 0-3.227.71-4.102 2.132-.875 1.407-1.336 3.61-1.383 6.61v7.734c0 3.188.445 5.563 1.336 7.125.891 1.563 2.289 2.344 4.195 2.344 1.829 0 3.18-.719 4.055-2.156.875-1.453 1.336-3.72 1.383-6.797v-7.711zm32.976 6.375c0 4.906-.921 8.61-2.765 11.11-1.828 2.484-4.617 3.726-8.367 3.726-3.688 0-6.469-1.211-8.344-3.633-1.859-2.438-2.813-6.04-2.859-10.805v-5.906c0-4.906.914-8.586 2.742-11.04 1.843-2.452 4.648-3.679 8.414-3.679 3.734 0 6.515 1.196 8.344 3.586 1.843 2.39 2.789 5.969 2.835 10.735v5.906zm-5.695-6.375c0-3.203-.437-5.547-1.312-7.031-.875-1.5-2.266-2.25-4.172-2.25-1.86 0-3.227.71-4.102 2.132-.875 1.407-1.336 3.61-1.383 6.61v7.734c0 3.188.446 5.563 1.336 7.125.891 1.563 2.289 2.344 4.196 2.344 1.828 0 3.179-.719 4.054-2.156.875-1.453 1.336-3.72 1.383-6.797v-7.711zM135.234 108V82.406h7.559c2.742 0 4.822.569 6.24 1.705 1.418 1.125 2.127 2.79 2.127 4.992 0 1.325-.363 2.479-1.09 3.463-.715.973-1.699 1.67-2.953 2.092 1.488.328 2.684 1.06 3.586 2.198.914 1.136 1.371 2.449 1.371 3.937 0 2.262-.732 4.031-2.197 5.309-1.453 1.265-3.481 1.898-6.082 1.898h-8.561zm2.162-12.305v10.477h6.487c1.851 0 3.316-.469 4.394-1.406 1.09-.95 1.635-2.262 1.635-3.938 0-1.582-.521-2.83-1.564-3.744-1.032-.926-2.461-1.389-4.289-1.389h-6.663zm0-1.81h5.907c1.804-.035 3.199-.457 4.183-1.266.996-.82 1.494-2.01 1.494-3.568 0-1.64-.515-2.848-1.546-3.621-1.02-.786-2.567-1.178-4.641-1.178h-5.397v9.633zm38.831 2.707c0 2.355-.411 4.424-1.231 6.205-.808 1.781-1.969 3.152-3.48 4.113-1.512.961-3.258 1.442-5.239 1.442-2.988 0-5.402-1.067-7.242-3.2-1.84-2.144-2.76-5.033-2.76-8.666V93.85c0-2.332.411-4.395 1.231-6.188.832-1.805 2.004-3.187 3.515-4.148 1.512-.973 3.252-1.46 5.221-1.46 1.969 0 3.703.475 5.203 1.424 1.512.95 2.678 2.291 3.498 4.026.821 1.734 1.248 3.744 1.284 6.03v3.058zm-2.163-2.778c0-3.082-.697-5.496-2.091-7.242-1.395-1.746-3.305-2.619-5.731-2.619-2.379 0-4.277.879-5.695 2.637-1.406 1.746-2.109 4.19-2.109 7.33v2.672c0 3.035.703 5.443 2.109 7.224 1.406 1.77 3.316 2.655 5.73 2.655 2.45 0 4.36-.873 5.731-2.619 1.371-1.758 2.056-4.202 2.056-7.33v-2.708zm25.735 6.206c-.293 2.695-1.26 4.757-2.901 6.187-1.628 1.43-3.802 2.145-6.521 2.145-1.898 0-3.58-.475-5.045-1.424-1.453-.949-2.578-2.291-3.375-4.026-.797-1.746-1.201-3.738-1.213-5.976v-3.323c0-2.273.399-4.288 1.195-6.046.797-1.758 1.94-3.112 3.428-4.06 1.5-.962 3.223-1.442 5.168-1.442 2.742 0 4.904.744 6.486 2.232 1.594 1.477 2.52 3.522 2.778 6.135h-2.18c-.539-4.348-2.9-6.522-7.084-6.522-2.32 0-4.172.868-5.555 2.602-1.371 1.734-2.056 4.13-2.056 7.19v3.128c0 2.953.668 5.309 2.004 7.067 1.347 1.758 3.164 2.636 5.449 2.636 2.262 0 3.967-.539 5.115-1.617 1.149-1.09 1.858-2.718 2.127-4.886h2.18zm11.021-4.026h-3.515V108h-2.162V82.406h2.162v11.742h3.41l9.896-11.742h2.725l-10.512 12.586L224.109 108h-2.689l-10.6-12.006zm19.389 1.582V108h-2.162V82.406h8.719c2.66 0 4.757.68 6.293 2.04 1.546 1.359 2.32 3.228 2.32 5.607 0 2.402-.744 4.26-2.233 5.572-1.476 1.3-3.621 1.951-6.433 1.951h-6.504zm0-1.828h6.557c2.097 0 3.697-.498 4.798-1.494 1.102-.996 1.653-2.385 1.653-4.166 0-1.77-.551-3.176-1.653-4.219-1.089-1.055-2.642-1.594-4.658-1.617h-6.697v11.496zm34.154-.017h-11.97v10.441h13.763V108H250.23V82.406h15.838v1.846h-13.675v9.65h11.97v1.829zm24.487 4.289c-.293 2.695-1.26 4.757-2.901 6.187-1.629 1.43-3.803 2.145-6.521 2.145-1.899 0-3.58-.475-5.045-1.424-1.453-.949-2.578-2.291-3.375-4.026-.797-1.746-1.201-3.738-1.213-5.976v-3.323c0-2.273.398-4.288 1.195-6.046s1.94-3.112 3.428-4.06c1.5-.962 3.223-1.442 5.168-1.442 2.742 0 4.904.744 6.486 2.232 1.594 1.477 2.52 3.522 2.778 6.135h-2.18c-.539-4.348-2.9-6.522-7.084-6.522-2.32 0-4.172.868-5.555 2.602-1.371 1.734-2.056 4.13-2.056 7.19v3.128c0 2.953.668 5.309 2.004 7.067 1.347 1.758 3.164 2.636 5.449 2.636 2.261 0 3.967-.539 5.115-1.617 1.148-1.09 1.857-2.718 2.127-4.886h2.18zm19.388-4.29h-11.97v10.442h13.763V108h-15.926V82.406h15.838v1.846h-13.675v9.65h11.97v1.829zm25.33 12.27h-2.179V95.73h-14.625V108h-2.162V82.406h2.162v11.496h14.625V82.406h2.179V108zm8.578-14.484h6.346c1.746 0 3.258.293 4.535.878 1.278.575 2.25 1.407 2.918 2.497.68 1.078 1.02 2.355 1.02 3.832 0 2.261-.756 4.043-2.268 5.343-1.511 1.289-3.603 1.934-6.275 1.934h-8.438V82.406h2.162v11.11zm0 1.845v10.811h6.329c1.98 0 3.527-.486 4.64-1.459 1.114-.984 1.67-2.326 1.67-4.025 0-1.618-.539-2.9-1.617-3.85-1.078-.961-2.59-1.453-4.535-1.477h-6.487zm34.12.37h-11.971v10.441h13.764V108h-15.926V82.406h15.838v1.846h-13.676v9.65h11.971v1.829z" fill="#FBD189"/></svg>
